icons/imagepng.svg

<svg width="16" height="16" viewBox="0 0 16 16" fill="none" xmlns="http://www.w3.org/2000/svg">
<path fill-rule="evenodd" clip-rule="evenodd" d="M3.29289 13.7071C3.10536 13.5196 3 13.2652 3 13V4.5V3C3 2.73479 3.10536 2.48043 3.29289 2.2929C3.48043 2.10536 3.73478 2 4 2H5.49672L5.5 2L5.50328 2H9.11C9.23874 1.99851 9.36642 2.02348 9.48511 2.07337C9.6038 2.12325 9.71098 2.19699 9.8 2.29C10.49 3 12 4.53 12.71 5.21C12.8947 5.39626 12.9989 5.64766 13 5.91V13C13 13.2652 12.8946 13.5196 12.7071 13.7071C12.5196 13.8946 12.2652 14 12 14H4C3.73478 14 3.48043 13.8946 3.29289 13.7071ZM4.5 10.3787V6.79198V3.5H9L11.5 6V6.1268V10.3787V12.5H4.5V10.3787ZM8 4.5H5.5V7C6.88071 7 8 5.88071 8 4.5ZM5.5 9.37868L7.29781 7.58087L9.07158 10.5372L10.5 9.82295V11.5H5.5V9.37868Z" fill="#9BC04B"/>
</svg>

<svg xmlns="http://www.w3.org/2000/svg" width="16" height="16" fill="none"><path fill="#9BC04B" fill-rule="evenodd" d="M3.293 13.707A1 1 0 0 1 3 13V3a1 1 0 0 1 1-1h5.11a.94.94 0 0 1 .69.29c.69.71 2.2 2.24 2.91 2.92a1 1 0 0 1 .29.7V13a1 1 0 0 1-1 1H4a1 1 0 0 1-.707-.293ZM4.5 10.38V3.5H9L11.5 6v6.5h-7v-2.121ZM8 4.5H5.5V7A2.5 2.5 0 0 0 8 4.5ZM5.5 9.379 7.298 7.58l1.774 2.956 1.428-.714V11.5h-5V9.379Z" clip-rule="evenodd"/></svg>
